src/lib/packages/icons/src/assets/line/chat-question.svg

<svg width="24" height="24" viewBox="0 0 24 24" fill="none" xmlns="http://www.w3.org/2000/svg">
<path d="M12.001 2.25C6.626 2.25 2.25295 6.62302 2.25295 11.999C2.25295 13.399 2.56405 14.808 3.15505 16.082C3.27005 16.325 3.27893 16.633 3.18093 16.94L2.34011 19.441C2.13011 20.073 2.29311 20.76 2.76711 21.233C3.10311 21.569 3.54692 21.749 4.00392 21.749C4.18992 21.749 4.37705 21.719 4.56105 21.658L7.05007 20.822C7.36807 20.721 7.67707 20.728 7.92507 20.848C9.19207 21.437 10.601 21.748 12 21.748C17.376 21.748 21.749 17.375 21.749 11.999C21.749 6.62302 17.377 2.25 12.001 2.25ZM12.001 20.248C10.818 20.248 9.62796 19.985 8.56496 19.491C7.97596 19.21 7.27703 19.175 6.58303 19.397L4.08498 20.236C3.95998 20.278 3.8699 20.214 3.8279 20.172C3.7859 20.13 3.72193 20.041 3.76393 19.916L4.60793 17.405C4.82493 16.722 4.78996 16.023 4.51296 15.442C4.01596 14.372 3.75295 13.182 3.75295 11.998C3.75295 7.44999 7.453 3.74902 12.001 3.74902C16.55 3.74902 20.25 7.44899 20.25 11.998C20.25 16.547 16.55 20.248 12.001 20.248ZM14.584 9.90503C14.769 10.957 14.329 11.897 13.345 12.551C12.789 12.92 12.713 13.108 12.71 13.115C12.597 13.417 12.3051 13.611 11.9971 13.611C11.9151 13.611 11.833 13.598 11.752 13.569C11.367 13.432 11.1581 13.023 11.2891 12.635C11.4921 12.034 12.0859 11.586 12.5149 11.302C13.1509 10.88 13.1579 10.451 13.1079 10.165C13.0299 9.72398 12.653 9.34698 12.211 9.26898C11.875 9.20898 11.5381 9.295 11.2781 9.513C11.0221 9.728 10.876 10.042 10.876 10.375C10.876 10.789 10.54 11.125 10.126 11.125C9.712 11.125 9.376 10.789 9.376 10.375C9.376 9.597 9.71798 8.86501 10.314 8.36401C10.91 7.86401 11.694 7.65502 12.471 7.79102C13.528 7.97702 14.397 8.84603 14.584 9.90503ZM13.02 15.5C13.02 16.052 12.573 16.5 12.02 16.5C11.468 16.5 11.0149 16.052 11.0149 15.5C11.0149 14.948 11.458 14.5 12.01 14.5H12.02C12.572 14.5 13.02 14.948 13.02 15.5Z" fill="currentColor"/>
</svg>

<svg xmlns="http://www.w3.org/2000/svg" width="24" height="24" fill="none"><path fill="currentColor" d="M12.001 2.25c-5.375 0-9.748 4.373-9.748 9.749 0 1.4.311 2.809.902 4.083.115.243.124.551.026.858l-.84 2.501a1.743 1.743 0 0 0 .426 1.792 1.745 1.745 0 0 0 1.794.425l2.49-.836c.317-.101.626-.094.874.026a9.73 9.73 0 0 0 4.075.9c5.376 0 9.749-4.373 9.749-9.749S17.377 2.25 12.001 2.25Zm0 17.998a8.214 8.214 0 0 1-3.436-.757c-.589-.281-1.288-.316-1.982-.094l-2.498.839a.244.244 0 0 1-.257-.064.242.242 0 0 1-.064-.256l.844-2.511c.217-.683.182-1.382-.095-1.963a8.227 8.227 0 0 1-.76-3.444c0-4.548 3.7-8.249 8.248-8.249 4.549 0 8.249 3.7 8.249 8.249s-3.7 8.25-8.249 8.25Zm2.583-10.343c.185 1.052-.255 1.992-1.239 2.646-.556.369-.632.557-.635.564a.767.767 0 0 1-.713.496.722.722 0 0 1-.245-.042.739.739 0 0 1-.463-.934c.203-.601.797-1.049 1.226-1.333.636-.422.643-.851.593-1.137a1.139 1.139 0 0 0-.897-.896 1.123 1.123 0 0 0-1.335 1.106.75.75 0 0 1-1.5 0c0-.778.342-1.51.938-2.011.596-.5 1.38-.709 2.157-.573a2.647 2.647 0 0 1 2.113 2.114ZM13.02 15.5a1 1 0 0 1-1 1 1.005 1.005 0 0 1-1.005-1c0-.552.443-1 .995-1h.01a1 1 0 0 1 1 1Z"/></svg>
